X:196
T:Bohemia First Scott Sett No.1. Le4.196
M:2/4
L:1/8
Q:2/4=50
N:* (3fdB in Mss
N:** A>c in Mss
N:*** Rests inserted by transcriber
B:L.Leadley MS#4 c1850
Z:Village Music Project 2016 Steve Mansfield
K:A
"Pia" B/B/ | A/c/ E BB/c/ | A2{A}ec/A/ | A/c/ E BB/c/ | A2 e>c |
"*" A/>c/ E BB/d/ | ca2 "*"(3f/d/B/ | Ac B/A/B/G/ | AcA ||
"For" G/A/ | BeBg | eb2 g/e/ | {e}dc'2 (3a/f/d/ | {g}e/^d/e/g/ B/A/G/A/ |
BeBg | eb2 g/e/ | c'2 c'/b/a/g/ | e2- e/d/B/c/ !segno! ||
"***" z3 e | edB=c | A2 EA | A2 Ea | a2 g=f |
gf=ef | d2 Bg | =c/B/A/c/ B/A/G/B/ | (B2 A) !D.C.! |]

